X: 9611
T: Dawn On The Strand
R: hornpipe
M: 4/4
K: Gmajor
|:G2 Bd edBd|d2 d2 efgd|c2 AB cefe|edcD FA df|
gdBG c2dc|BGDB,A,2B,C|DFAd cBAF|1 FGGF G2 zD:|2 FGGF G2 Bc||
|:dG (3Bdg b2 ag|dBGE C2 DE|FAd^c edfe|ed^cd =cdBd|
gdBG c2dc|BGDB,A,2B,C|DFAd cBAF|1 FGGF G2Bc:|2 FGGF G2z2||

